X:51
T:L'Ontouno
M:3/8
L:1/8
N:Trs large
N:La Bourre 4th edition 1929, page 58
Z:Steve Mansfield www.lesession.co.uk May 2012
K:Bb
B c d d- d c2 c | f3 f d4 |
B c d d- d c2 c | f3 f !fermata! d4 | (Bc) d e d3 c |
(c {dc} B2) c (c4 {Bc}) | d8 | (Bc) d e d3 c | (c{dc}B)- !fermata! B6 |]

